X: 147
T: Simian jing
%%abc-version 2.0
%%abcx-abcm2ps-target-version 5.9.1 (29 Sep 2008)
%%abc-creator hum2abc beta
%%abcx-conversion-date 2013/10/02 07:52:29
%%abc-edited-by Helmut Schaffrath
%%humdrum-veritas 325190340
%%humdrum-veritas-data 498013633
%%continueall 1
%%barnumbers 0
L: 1/8
M: 4/4
K: G
d e d BA4 [I:setbarnb 1]| 
d e d BA2B A | 
G2A2d2B d | 
A B A EG4 | 
G2A2d2B A | 
G A B dA2B A | 
D2E2A2G2 | 
FE2B,D4 | 
d> e d BA2B A | 
D2E2A2G2 | 
FE2B,D4 |]  



